X:38
T:Gemeenschapsmenuet
C:Traditioneel
C:Arr. Bert Van Vreckem
Z:Bert Van Vreckem <http://flanders.blackmill.net/music/> 2005-09-20
M:3/4
L:1/8
P:(AB)4
%%staves [1 2]
K:D
P:A
V:1
|:"D"d2 (d>e) (f>g)|a2 a4|"G"b2 (bg) (d'b)|"D"a2 a4|\
V:2
|:d2 (d>e) (f>d)|[d2f2] [d4f4]|g2 (gd) (ag)|[d2f2] [d4f4]|\
V:1
"A7"g2 (g>b) (a>g)|("D"f>g a)f ed|("A"e>f g)A Bc|"D"{c}d2 d4:|
V:2
e2 (e>g) (f>e)|d3 e f2|(AB cd ef)|e2 {fe}d4:|
P:B
V:1
|:"D"f2 f>d a>f|"A"{f}e2 e3 c|"Bm"d2 (d>f) (e>d)|"F#m"{e}c2 c4|\
V:2
|:[A2d2] [Ad]e d2|{ed}c3 B A2|Bc (dc) (Bd)|cB A2 F2|\
V:1
"G"B2 B>G d>B|"D"A>d FG AB|"A7"c>d ef gc|"D"{e}d2 d4:|
V:2
GA BA GB|AG FG AF|(AB cd ef)|e2 {fe}d4:|

